dist/icons/svgs/object-ungroup-solid.svg

<svg xmlns="http://www.w3.org/2000/svg" width="24" height="24" fill="currentcolor" class="icon-object-ungroup-solid" viewBox="0 0 24 24">
  <path d="M1.25 6.6875C0.46875 6.25781 0 5.4375 0 4.5C0 3.13281 1.09375 2 2.5 2C3.39844 2 4.21875 2.50781 4.64844 3.25H12.8125C13.2422 2.50781 14.0625 2 15 2C16.3672 2 17.5 3.13281 17.5 4.5C17.5 5.4375 16.9922 6.25781 16.25 6.6875V11.1016C16.9922 11.5312 17.5 12.3516 17.5 13.25C17.5 14.6562 16.3672 15.75 15 15.75C14.0625 15.75 13.2422 15.2812 12.8125 14.5H4.64844C4.21875 15.2812 3.39844 15.75 2.5 15.75C1.09375 15.75 0 14.6562 0 13.25C0 12.3516 0.46875 11.5312 1.25 11.1016V6.6875ZM4.64844 5.75C4.41406 6.14062 4.10156 6.45312 3.75 6.6875V11.1016C4.10156 11.3359 4.41406 11.6484 4.64844 12H12.8125C13.0469 11.6484 13.3594 11.3359 13.75 11.1016V6.6875C13.3594 6.45312 13.0469 6.14062 12.8125 5.75H4.64844ZM12.1484 20.75C11.7188 21.5312 10.8984 22 10 22C8.59375 22 7.5 20.9062 7.5 19.5C7.5 18.6016 7.96875 17.7812 8.75 17.3516V15.75H11.25V17.3516C11.6016 17.5859 11.9141 17.8984 12.1484 18.25H20.3125C20.5469 17.8984 20.8594 17.5859 21.25 17.3516V12.9375C20.8594 12.7031 20.5469 12.3906 20.3125 12H18.5156C18.3203 11.4141 17.9688 10.9062 17.5 10.4766V9.5H20.3125C20.7422 8.75781 21.5625 8.25 22.5 8.25C23.8672 8.25 25 9.38281 25 10.75C25 11.6875 24.4922 12.5078 23.75 12.9375V17.3516C24.4922 17.7812 25 18.6016 25 19.5C25 20.9062 23.8672 22 22.5 22C21.5625 22 20.7422 21.5312 20.3125 20.75H12.1484Z"/>
</svg>

<svg xmlns="http://www.w3.org/2000/svg" width="24" height="24" fill="currentColor" class="icon-object-ungroup-solid" viewBox="0 0 24 24">
  <path d="M1.25 6.688C.469 6.258 0 5.438 0 4.5 0 3.133 1.094 2 2.5 2c.898 0 1.719.508 2.148 1.25h8.165A2.53 2.53 0 0 1 15 2c1.367 0 2.5 1.133 2.5 2.5 0 .938-.508 1.758-1.25 2.188v4.414c.742.43 1.25 1.25 1.25 2.148 0 1.406-1.133 2.5-2.5 2.5-.937 0-1.758-.469-2.187-1.25H4.648A2.43 2.43 0 0 1 2.5 15.75a2.47 2.47 0 0 1-2.5-2.5 2.43 2.43 0 0 1 1.25-2.148zm3.398-.938c-.234.39-.546.703-.898.938v4.414c.352.234.664.546.898.898h8.165a2.95 2.95 0 0 1 .937-.898V6.688a2.7 2.7 0 0 1-.937-.938zm7.5 15A2.43 2.43 0 0 1 10 22a2.47 2.47 0 0 1-2.5-2.5 2.43 2.43 0 0 1 1.25-2.148V15.75h2.5v1.602c.352.234.664.546.898.898h8.165a2.95 2.95 0 0 1 .937-.898v-4.414a2.7 2.7 0 0 1-.937-.938h-1.797a3.6 3.6 0 0 0-1.016-1.523V9.5h2.813A2.53 2.53 0 0 1 22.5 8.25c1.367 0 2.5 1.133 2.5 2.5 0 .938-.508 1.758-1.25 2.188v4.414c.742.43 1.25 1.25 1.25 2.148 0 1.406-1.133 2.5-2.5 2.5-.937 0-1.758-.469-2.187-1.25z"/>
</svg>
